img/about/2.svg

<svg width="36" height="36" viewBox="0 0 36 36" fill="none" xmlns="http://www.w3.org/2000/svg">
<g clip-path="url(#clip0)">
<path d="M20.7351 10.1012C20.7847 10.0515 20.9172 10.0184 21 10.0184C21.5133 10.0184 22.0432 10.0184 22.54 10.0184C23.2355 10.0184 23.9476 10.0184 24.6431 10.0018C25.4379 9.98528 26.0672 9.91904 26.6302 9.78657C30.4885 8.90892 33.0718 5.54738 33.0718 1.44066C33.0718 1.19227 33.0718 0.430543 32.2769 0.0662374L32.1941 0H27.0442L26.9945 0.0165593C26.7958 0.0662374 26.6136 0.115915 26.4149 0.149034C25.9844 0.24839 25.5373 0.364305 25.0902 0.49678C24.1794 0.794848 23.3349 1.27507 22.5069 2.00368C22.2916 2.18583 22.1592 2.4011 22.0929 2.63293C20.5032 4.40478 19.5925 6.97148 19.609 8.46182C19.609 8.57774 19.5925 8.62741 19.4931 8.71021C17.5888 10.3165 16.4462 12.3698 16.0984 14.8206C16.0819 14.9531 16.0653 15.069 16.0488 15.2015C16.0322 15.1684 16.0322 15.1187 16.0322 15.0359V15.0193C16.0156 14.4894 15.9991 13.9264 15.8832 13.3799C15.5685 11.2438 14.0616 9.4057 11.644 8.19687C9.60718 7.17019 6.97424 6.65685 4.63937 6.82245C4.60626 6.82245 4.57314 6.82245 4.54002 6.83901C3.96044 6.83901 3.38086 7.13707 3.06624 7.6173L3 7.71665V9.33947L3.01656 9.38914C3.03312 9.42226 3.03312 9.45538 3.04968 9.4885C3.06624 9.52162 3.06624 9.5713 3.0828 9.58786C3.51334 13.3303 6.80865 16.3937 10.5676 16.5593C11.379 16.5925 12.1904 16.5925 12.9853 16.5925C13.5317 16.5925 14.0782 16.5925 14.6247 16.609C14.724 16.609 14.8565 16.6587 14.9227 16.7249C15.6017 17.3542 15.966 18.0994 15.9825 18.9273C16.0156 20.2355 16.0156 21.5768 16.0156 22.885V22.9016C15.701 21.1132 14.6081 19.8381 12.8362 19.1923C11.7433 18.7948 10.6339 18.8611 9.5575 18.9108C9.3919 18.9273 9.24287 18.9273 9.07728 18.9439C8.4977 18.977 8.10028 19.4241 8.08372 20.103C7.98436 22.471 9.72309 24.6237 12.0083 25.0046C12.5879 25.104 13.184 25.104 13.747 25.104C14.0616 25.104 14.3763 25.104 14.6743 25.1205C14.8068 25.1205 14.9227 25.1702 14.9724 25.2199C15.6182 25.7663 15.9494 26.4453 15.9825 27.2235C16.0156 27.9853 16.0156 28.7801 16.0156 29.5253C16.0156 29.9393 16.0156 30.3698 16.0156 30.8004C15.8004 30.8832 15.5851 30.966 15.3698 31.0488C15.138 31.1316 14.9393 31.2143 14.7075 31.2971C14.5253 31.3634 14.3266 31.4296 14.1776 31.4131C13.2006 31.3303 12.207 31.6615 11.4453 32.3238C10.7001 32.9696 10.2695 33.8473 10.2199 34.7746C10.2033 35.0396 10.2199 35.4204 10.4848 35.7019C10.7498 35.9834 11.1306 36.0166 11.3956 36.0166C12.8362 36.0166 14.2769 36.0166 15.701 36.0166H16.7774C16.8436 36.0166 17.0092 36.0166 17.2576 36.0166C18.1187 36.0166 18.8307 36.0166 19.3275 36.0166C19.7249 36.0166 19.9899 36.0166 20.0727 36.0166C20.0892 36.0166 20.1058 36.0166 20.1224 36.0166C21.0497 36.0166 21.8942 36.0166 22.6725 36.0166C23.1196 36.0166 23.368 35.8344 23.5005 35.6854C23.6329 35.5363 23.782 35.2548 23.7323 34.8077C23.5501 33.1518 22.2254 32.0092 20.5695 32.1086C20.3045 32.1251 20.1555 32.0754 20.0064 31.943C19.4103 31.3468 18.6983 30.966 17.8868 30.8004C17.8868 29.6247 17.8868 28.4324 17.8868 27.2567C17.8868 25.6173 17.8868 23.9282 17.8868 22.2723C17.8868 21.3615 18.2677 20.5998 19.0129 20.0202C19.0626 19.9871 19.1454 19.954 19.195 19.954C19.6421 19.954 20.0892 19.954 20.5363 19.954C20.8841 19.954 21.2484 19.954 21.5961 19.954C23.3183 19.9374 24.8914 19.2916 26.034 18.1325C27.1435 16.9899 27.7562 15.4333 27.7396 13.7608C27.7231 12.9328 27.2594 12.4857 26.4315 12.4857C25.8353 12.4857 25.2226 12.4857 24.6265 12.4857H23.9972C20.6523 12.4857 18.0524 14.9696 17.8868 18.3146C17.8868 18.2484 17.8868 18.1822 17.8868 18.0994C17.8868 17.437 17.8868 16.7746 17.8868 16.0957C17.92 13.6615 18.8804 11.6412 20.7351 10.1012Z" fill="#051B10"/>
<path d="M21.0828 7.76631C21.1656 6.82243 22.1757 4.17293 23.368 3.34496C23.4177 3.26217 23.4508 3.16281 23.4673 3.09657C23.517 3.0469 23.5833 2.99722 23.6329 2.9641C24.7921 2.03678 26.1168 1.52344 27.6072 1.47376C28.8822 1.44064 30.1739 1.4572 31.4489 1.4572C31.4986 1.4572 31.5483 1.47376 31.598 1.47376C31.7139 4.0239 30.2898 6.64027 27.69 7.89878C25.9678 8.72675 24.1463 8.56116 22.3413 8.52804C22.3413 8.52804 22.3247 8.51148 22.3082 8.47836C22.4075 8.39556 22.5069 8.31277 22.6228 8.24653C23.9807 7.28609 25.3551 6.32565 26.713 5.3652C26.8123 5.29897 26.9282 5.23273 27.011 5.13337C27.1766 4.93466 27.2097 4.71939 27.0607 4.50412C26.9117 4.30541 26.6964 4.22261 26.4646 4.32197C26.3652 4.35508 26.2824 4.42132 26.1996 4.471C24.6265 5.58048 23.0534 6.67339 21.4802 7.78287C21.3643 7.86566 21.2484 7.94846 21.0828 8.04782C21.0662 7.91534 21.0662 7.8491 21.0828 7.76631Z" fill="#166D44"/>
<path d="M11.6278 12.5685C10.9488 12.0883 10.2699 11.6081 9.57439 11.1278C9.30944 10.9457 9.01137 10.9954 8.84578 11.2106C8.66363 11.459 8.72987 11.7571 8.99482 11.9558C9.04449 12.0055 9.11073 12.0386 9.16041 12.0717C10.4355 12.9659 11.7105 13.8601 12.9856 14.7543C13.1181 14.8537 13.2506 14.953 13.4493 15.1021C13.2671 15.1186 13.1678 15.1352 13.0684 15.1352C12.3895 15.1352 11.7105 15.1352 11.0482 15.1352C8.06749 15.1021 5.51735 13.1481 4.70595 10.2833C4.52379 9.65405 4.441 8.99168 4.47411 8.32931C4.65627 8.31275 4.8053 8.32931 4.95434 8.29619C5.02057 8.27963 5.07025 8.26307 5.11993 8.24651C5.21928 8.24651 5.31864 8.24651 5.418 8.24651C8.49803 8.24651 13.5486 9.60438 14.4263 13.413C14.5256 13.7939 14.5588 14.1913 14.625 14.6881C13.5652 13.9429 12.6048 13.264 11.6278 12.5685Z" fill="#166D44"/>
<path d="M11.6605 22.3385C12.1572 22.6863 12.654 23.034 13.1508 23.3818C13.2336 23.448 13.333 23.5143 13.4323 23.5805C11.7598 24.1601 9.3256 22.1233 9.57399 20.2852C10.4185 20.3514 11.2962 20.3018 12.1076 20.4839C13.4489 20.782 14.2437 21.7093 14.5252 23.0837C13.8629 22.6201 13.2005 22.1564 12.5381 21.6927C12.4388 21.6265 12.3394 21.5437 12.2235 21.4775C11.942 21.3119 11.6605 21.3615 11.4949 21.6099C11.3458 21.8418 11.4121 22.1564 11.6605 22.3385Z" fill="black"/>
<path d="M20.6195 15.2512C21.5468 14.3073 22.7059 13.8767 24.0141 13.8933C24.7427 13.8933 25.4714 13.8933 26.2496 13.8933C26.2331 15.0359 25.8688 16.0294 25.1402 16.8905C23.9148 18.3312 22.292 18.6293 20.4704 18.4637C20.5698 18.3809 20.6526 18.3146 20.7354 18.2484C21.5468 17.6854 22.3416 17.1224 23.153 16.5593C23.3683 16.4103 23.5339 16.2282 23.4677 15.9301C23.3683 15.5492 22.9875 15.4167 22.6231 15.6651C21.9773 16.0957 21.3481 16.5593 20.7188 17.0064C20.2717 17.3211 19.8246 17.6357 19.3278 17.9834C19.4603 16.874 19.8909 15.9798 20.6195 15.2512Z" fill="black"/>
<path d="M19.1122 33.0525C19.4765 33.3836 19.9071 33.5492 20.3873 33.5327C20.5529 33.5327 20.7019 33.5161 20.8675 33.5327C21.4802 33.5824 22.0432 34.0295 22.126 34.5594C21.414 34.5594 20.7019 34.5594 19.9899 34.5594C19.9568 34.5594 19.9236 34.5594 19.8905 34.5594C19.3441 34.5428 17.3569 34.5428 17.2742 34.5428C15.552 34.5428 13.8133 34.5428 12.0911 34.5428C11.9752 34.5428 11.8427 34.5428 11.6937 34.5428C11.7102 34.4434 11.7102 34.3772 11.7433 34.311C12.0745 33.3505 13.0184 32.7378 14.0782 32.8537C14.5087 32.9034 14.8896 32.8206 15.2705 32.6053C16.678 31.8105 17.92 31.9595 19.1122 33.0525Z" fill="white"/>
<path d="M19.3439 17.9669C19.4764 16.874 19.9069 15.9798 20.6355 15.2512C21.5628 14.3073 22.722 13.8767 24.0302 13.8933C24.7588 13.8933 25.4874 13.8933 26.2657 13.8933C26.2491 15.0359 25.8848 16.0294 25.1562 16.8905C23.9308 18.3312 22.308 18.6293 20.4865 18.4637C20.5858 18.3809 20.6686 18.3146 20.7514 18.2484C21.5628 17.6854 22.3577 17.1224 23.1691 16.5593C23.3844 16.4103 23.55 16.2282 23.4837 15.9301C23.3844 15.5492 23.0035 15.4167 22.6392 15.6651C21.9934 16.0957 21.3641 16.5593 20.7349 17.0064C20.2878 17.3045 19.8407 17.6191 19.3439 17.9669Z" fill="#166D44"/>
<path d="M14.5252 23.1003C13.8629 22.6366 13.2005 22.173 12.5381 21.7093C12.4388 21.6431 12.3394 21.5603 12.2235 21.494C11.942 21.3284 11.6605 21.3781 11.4949 21.6265C11.3458 21.8583 11.3955 22.1564 11.6605 22.3551C12.1572 22.7029 12.654 23.0506 13.1508 23.3984C13.2336 23.4646 13.333 23.5308 13.4323 23.5971C11.7598 24.1767 9.3256 22.1399 9.57399 20.3018C10.4185 20.368 11.2962 20.3183 12.1076 20.5005C13.4489 20.7985 14.2437 21.7259 14.5252 23.1003Z" fill="#166D44"/>
</g>
<defs>
<clipPath id="clip0">
<rect width="36" height="36" fill="white"/>
</clipPath>
</defs>
</svg>

<svg width="36" height="36" fill="none" xmlns="http://www.w3.org/2000/svg"><g clip-path="url(#clip0)"><path d="M20.735 10.101c.05-.05.182-.083.265-.083h1.54c.695 0 1.408 0 2.103-.016.795-.017 1.424-.083 1.987-.215 3.858-.878 6.442-4.24 6.442-8.346 0-.249 0-1.01-.795-1.375L32.194 0h-5.15l-.05.017c-.198.05-.38.099-.58.132-.43.1-.877.215-1.324.348-.91.298-1.755.778-2.583 1.507a1.273 1.273 0 00-.414.629c-1.59 1.772-2.5 4.338-2.484 5.829 0 .116-.017.165-.116.248-1.904 1.606-3.047 3.66-3.395 6.11-.016.133-.033.249-.05.381-.016-.033-.016-.082-.016-.165v-.017c-.016-.53-.033-1.093-.149-1.64-.314-2.135-1.821-3.973-4.239-5.182-2.037-1.027-4.67-1.54-7.005-1.375-.033 0-.066 0-.099.017-.58 0-1.16.298-1.474.778l-.066.1v1.622l.017.05c.016.033.016.066.033.1.016.033.016.082.033.099.43 3.742 3.726 6.806 7.485 6.971.811.034 1.622.034 2.417.034.547 0 1.093 0 1.64.016.099 0 .232.05.298.116.679.63 1.043 1.374 1.06 2.202.033 1.308.033 2.65.033 3.958v.017c-.315-1.789-1.408-3.064-3.18-3.71-1.093-.397-2.202-.33-3.279-.281-.165.016-.314.016-.48.033-.58.033-.977.48-.993 1.159-.1 2.368 1.64 4.52 3.924 4.902.58.099 1.176.099 1.739.099.315 0 .63 0 .927.017.133 0 .249.05.298.099.646.546.977 1.225 1.01 2.004.034.761.034 1.556.034 2.301V30.8l-.646.249c-.232.083-.43.165-.662.248-.183.066-.381.133-.53.116a3.713 3.713 0 00-2.733.91c-.745.647-1.175 1.524-1.225 2.452-.017.265 0 .645.265.927.265.281.646.315.91.315h11.279c.447 0 .695-.183.828-.332.132-.149.281-.43.231-.877-.182-1.656-1.507-2.799-3.162-2.7-.265.017-.415-.033-.564-.165a4.106 4.106 0 00-2.12-1.143v-8.528c0-.91.382-1.672 1.127-2.252a.408.408 0 01.182-.066h2.401c1.722-.017 3.295-.662 4.438-1.822 1.11-1.142 1.722-2.699 1.706-4.371-.017-.828-.48-1.275-1.308-1.275h-2.435c-3.345 0-5.945 2.484-6.11 5.829v-2.219c.033-2.434.993-4.455 2.848-5.995z" fill="#051B10"/><path d="M21.083 7.766c.083-.944 1.093-3.593 2.285-4.421a.97.97 0 00.1-.248c.049-.05.115-.1.165-.133 1.159-.927 2.484-1.44 3.974-1.49 1.275-.033 2.567-.017 3.842-.017.05 0 .1.017.149.017.116 2.55-1.308 5.166-3.908 6.425-1.722.828-3.544.662-5.349.629 0 0-.016-.017-.033-.05.1-.082.199-.165.315-.231 1.358-.96 2.732-1.921 4.09-2.882.1-.066.215-.132.298-.232.166-.198.199-.414.05-.629-.15-.199-.365-.281-.596-.182-.1.033-.183.1-.265.149-1.574 1.11-3.147 2.202-4.72 3.312a5.78 5.78 0 01-.397.265.793.793 0 010-.282zm-9.455 4.803c-.68-.48-1.358-.96-2.054-1.441-.265-.182-.563-.133-.728.083-.183.248-.116.546.149.745.05.05.116.083.165.116l3.825 2.682c.133.1.265.2.464.348-.182.017-.281.033-.38.033h-2.021a6.627 6.627 0 01-6.342-4.852 5.97 5.97 0 01-.232-1.954c.182-.016.331 0 .48-.033.066-.016.116-.033.166-.05h.298c3.08 0 8.13 1.358 9.008 5.167.1.38.133.778.199 1.275-1.06-.745-2.02-1.424-2.997-2.12z" fill="#166D44"/><path d="M11.66 22.338l1.491 1.044c.083.066.182.132.282.198-1.673.58-4.107-1.457-3.859-3.295.845.066 1.722.017 2.534.199 1.341.298 2.136 1.225 2.417 2.6l-1.987-1.391c-.099-.067-.198-.15-.314-.216-.282-.165-.563-.116-.729.133-.149.232-.083.546.166.729zm8.96-7.087c.927-.944 2.086-1.374 3.394-1.358h2.236c-.017 1.143-.38 2.136-1.11 2.997-1.225 1.441-2.848 1.74-4.67 1.574.1-.083.183-.15.266-.216.811-.563 1.606-1.126 2.417-1.689.216-.149.381-.33.315-.629-.1-.38-.48-.513-.845-.265-.645.43-1.275.894-1.904 1.341-.447.315-.894.63-1.39.977.132-1.109.562-2.003 1.29-2.732z" fill="#000"/><path d="M19.112 33.053c.364.33.795.496 1.275.48.166 0 .315-.017.48 0 .613.05 1.176.496 1.259 1.026H19.89c-.546-.016-2.533-.016-2.616-.016h-5.581c.017-.1.017-.166.05-.232.331-.96 1.275-1.573 2.335-1.457.43.05.811-.033 1.192-.249 1.408-.794 2.65-.645 3.842.448z" fill="#fff"/><path d="M19.344 17.967c.132-1.093.563-1.987 1.291-2.716.928-.944 2.087-1.374 3.395-1.358h2.236c-.017 1.143-.381 2.136-1.11 2.997-1.225 1.441-2.848 1.74-4.67 1.574.1-.083.183-.15.265-.216.812-.563 1.607-1.126 2.418-1.689.215-.149.38-.33.315-.629-.1-.38-.48-.513-.845-.265-.646.43-1.275.894-1.904 1.341-.447.299-.895.613-1.391.96zM14.525 23.1l-1.987-1.39c-.099-.067-.198-.15-.314-.216-.282-.166-.563-.116-.729.133-.149.231-.1.53.166.728l1.49 1.043c.083.067.182.133.282.2-1.673.579-4.107-1.458-3.859-3.296.845.066 1.722.016 2.534.198 1.341.299 2.136 1.226 2.417 2.6z" fill="#166D44"/></g><defs><clipPath id="clip0"><path fill="#fff" d="M0 0h36v36H0z"/></clipPath></defs></svg>
